src/static/star.svg

<svg xmlns="http://www.w3.org/2000/svg" width="1301" height="952" viewBox="0 0 1301 952">
  <g fill="#FFF" fill-rule="evenodd">
    <path d="M1043 63.5C1043 64.8805 1041.8805 66 1040.5 66 1039.1195 66 1038 64.8805 1038 63.5 1038 62.1195 1039.1195 61 1040.5 61 1041.8805 61 1043 62.1195 1043 63.5M344 43.5C344 44.8805 342.8805 46 341.5 46 340.1195 46 339 44.8805 339 43.5 339 42.1195 340.1195 41 341.5 41 342.8805 41 344 42.1195 344 43.5M199 572.5C199 573.8805 197.8805 575 196.5 575 195.1195 575 194 573.8805 194 572.5 194 571.1195 195.1195 570 196.5 570 197.8805 570 199 571.1195 199 572.5M241 391.5C241 392.881 239.881 394 238.5 394 237.119 394 236 392.881 236 391.5 236 390.119 237.119 389 238.5 389 239.881 389 241 390.119 241 391.5M905 92.5C905 93.881 903.881 95 902.5 95 901.119 95 900 93.881 900 92.5 900 91.119 901.119 90 902.5 90 903.881 90 905 91.119 905 92.5M681 12.5C681 13.881 679.881 15 678.5 15 677.119 15 676 13.881 676 12.5 676 11.119 677.119 10 678.5 10 679.881 10 681 11.119 681 12.5M426 213.5C426 214.881 424.881 216 423.5 216 422.119 216 421 214.881 421 213.5 421 212.119 422.119 211 423.5 211 424.881 211 426 212.119 426 213.5M475 63.5C475 64.881 473.881 66 472.5 66 471.119 66 470 64.881 470 63.5 470 62.119 471.119 61 472.5 61 473.881 61 475 62.119 475 63.5M875 2.5C875 3.881 873.881 5 872.5 5 871.119 5 870 3.881 870 2.5 870 1.119 871.119 0 872.5 0 873.881 0 875 1.119 875 2.5M597.063135 159.056355C596.756215 157.709706 597.597996 156.370055 598.943645 156.063135 600.290294 155.756215 601.628945 156.597996 601.936865 157.943645 602.243785 159.289294 601.402004 160.628945 600.056355 160.936865 598.709706 161.243785 597.371055 160.402004 597.063135 159.056355M1018.06332 249.056231C1017.75588 247.710496 1018.59771 246.37026 1019.94394 246.06332 1021.28967 245.755881 1022.6299 246.597715 1022.93684 247.94345 1023.24377 249.289685 1022.40244 250.629421 1021.05622 250.936861 1019.71049 251.2438 1018.37026 250.401966 1018.06332 249.056231M315.063166 460.056306C314.756218 458.710606 315.597575 457.370405 316.943845 457.063473 318.289615 456.755542 319.629886 457.597854 319.936834 458.943554 320.243782 460.289754 319.402425 461.629456 318.056155 461.936887 316.710385 462.243819 315.370114 461.401507 315.063166 460.056306M441.063498 663.056056C440.755561 661.710234 441.597389 660.370412 442.944114 660.063453 444.289838 659.755493 445.629565 660.598382 445.936502 661.944203 446.244439 663.289025 445.402611 664.629847 444.055886 664.936807 442.710162 665.243766 441.370435 664.402877 441.063498 663.056056M358.063134 793.056136C357.756214 791.710443 358.597995 790.370248 359.944145 790.063318 361.289295 789.755888 362.629446 790.597697 362.936866 791.94339 363.243786 793.289583 362.402005 794.629278 361.055855 794.936708 359.710705 795.244138 358.370554 794.40183 358.063134 793.056136M678.063134 781.056231C677.756214 779.710496 678.597995 778.37026 679.944144 778.06332 681.289294 777.755881 682.629445 778.597715 682.936865 779.94345 683.243785 781.289685 682.402004 782.629421 681.056354 782.936861 679.710705 783.2438 678.370554 782.401966 678.063134 781.056231M849.063134 711.056127C848.756214 709.710427 849.597995 708.370725 850.944145 708.063294 852.289295 707.755862 853.629446 708.598174 853.936866 709.943375 854.243786 711.289575 853.402005 712.629276 852.055855 712.936708 850.710705 713.244139 849.370554 712.401827 849.063134 711.056127M990.063166 880.056306C989.756218 878.710606 990.597575 877.370405 991.943845 877.063473 993.289615 876.755542 994.629886 877.597854 994.936834 878.943554 995.243782 880.289254 994.402425 881.628956 993.056155 881.936887 991.710385 882.243819 990.370114 881.401507 990.063166 880.056306M1173.06332 488.05643C1172.75588 486.710816 1173.59771 485.3707 1174.94395 485.063288 1176.28968 484.755876 1177.62942 485.598135 1177.93686 486.943749 1178.2438 488.289364 1177.40197 489.62898 1176.05623 489.936891 1174.7105 490.243803 1173.37026 489.401545 1173.06332 488.05643M1296.06332 304.055931C1295.75588 302.710816 1296.59771 301.3707 1297.94395 301.063288 1299.28968 300.755876 1300.62992 301.598135 1300.93686 302.94375 1301.2438 304.289364 1300.40197 305.628981 1299.05623 305.936893 1297.7105 306.243805 1296.37026 305.401546 1296.06332 304.055931M807 816.5C807 817.881 805.881 819 804.5 819 803.119 819 802 817.881 802 816.5 802 815.119 803.119 814 804.5 814 805.881 814 807 815.119 807 816.5M733 949.5C733 950.881 731.881 952 730.5 952 729.119 952 728 950.881 728 949.5 728 948.119 729.119 947 730.5 947 731.881 947 733 948.119 733 949.5M977 692.5C977 693.881 975.881 695 974.5 695 973.119 695 972 693.881 972 692.5 972 691.119 973.119 690 974.5 690 975.881 690 977 691.119 977 692.5M233 708.5C233 709.881 231.881 711 230.5 711 229.119 711 228 709.881 228 708.5 228 707.119 229.119 706 230.5 706 231.881 706 233 707.119 233 708.5M1205 404.5C1205 405.881 1203.881 407 1202.5 407 1201.119 407 1200 405.881 1200 404.5 1200 403.119 1201.119 402 1202.5 402 1203.881 402 1205 403.119 1205 404.5M497 888.5C497 889.8805 495.8805 891 494.5 891 493.1195 891 492 889.8805 492 888.5 492 887.1195 493.1195 886 494.5 886 495.8805 886 497 887.1195 497 888.5M5 858.5C5 859.8805 3.8805 861 2.5 861 1.1195 861 0 859.8805 0 858.5 0 857.1195 1.1195 856 2.5 856 3.8805 856 5 857.1195 5 858.5M65 218.5C65 219.8805 63.8805 221 62.5 221 61.1195 221 60 219.8805 60 218.5 60 217.1195 61.1195 216 62.5 216 63.8805 216 65 217.1195 65 218.5M1183 835.5C1183 836.8805 1181.8805 838 1180.5 838 1179.1195 838 1178 836.8805 1178 835.5 1178 834.1195 1179.1195 833 1180.5 833 1181.8805 833 1183 834.1195 1183 835.5M1096 627.5C1096 628.8805 1094.8805 630 1093.5 630 1092.1195 630 1091 628.8805 1091 627.5 1091 626.1195 1092.1195 625 1093.5 625 1094.8805 625 1096 626.1195 1096 627.5M1140 240.5C1140 241.8805 1138.8805 243 1137.5 243 1136.1195 243 1135 241.8805 1135 240.5 1135 239.1195 1136.1195 238 1137.5 238 1138.8805 238 1140 239.1195 1140 240.5M618 98.5C618 99.8805 616.8805 101 615.5 101 614.1195 101 613 99.8805 613 98.5 613 97.1195 614.1195 96 615.5 96 616.8805 96 618 97.1195 618 98.5"/>
  </g>
</svg>

<?xml version="1.0" encoding="UTF-8"?><svg viewBox="0 0 1301 952" xmlns="http://www.w3.org/2000/svg"><g fill="#FFF" fill-rule="evenodd"><path d="m1043 63.5c0 1.3805-1.1195 2.5-2.5 2.5s-2.5-1.1195-2.5-2.5 1.1195-2.5 2.5-2.5 2.5 1.1195 2.5 2.5m-699-20c0 1.3805-1.1195 2.5-2.5 2.5s-2.5-1.1195-2.5-2.5 1.1195-2.5 2.5-2.5 2.5 1.1195 2.5 2.5m-145 529c0 1.3805-1.1195 2.5-2.5 2.5s-2.5-1.1195-2.5-2.5 1.1195-2.5 2.5-2.5 2.5 1.1195 2.5 2.5m42-181c0 1.381-1.119 2.5-2.5 2.5s-2.5-1.119-2.5-2.5 1.119-2.5 2.5-2.5 2.5 1.119 2.5 2.5m664-299c0 1.381-1.119 2.5-2.5 2.5s-2.5-1.119-2.5-2.5 1.119-2.5 2.5-2.5 2.5 1.119 2.5 2.5m-224-80c0 1.381-1.119 2.5-2.5 2.5s-2.5-1.119-2.5-2.5 1.119-2.5 2.5-2.5 2.5 1.119 2.5 2.5m-255 201c0 1.381-1.119 2.5-2.5 2.5s-2.5-1.119-2.5-2.5 1.119-2.5 2.5-2.5 2.5 1.119 2.5 2.5m49-150c0 1.381-1.119 2.5-2.5 2.5s-2.5-1.119-2.5-2.5 1.119-2.5 2.5-2.5 2.5 1.119 2.5 2.5m400-61c0 1.381-1.119 2.5-2.5 2.5s-2.5-1.119-2.5-2.5 1.119-2.5 2.5-2.5 2.5 1.119 2.5 2.5m-277.94 156.56c-0.30692-1.3466 0.53486-2.6863 1.8805-2.9932 1.3466-0.30692 2.6853 0.53486 2.9932 1.8805 0.30692 1.3456-0.53486 2.6853-1.8805 2.9932-1.3466 0.30692-2.6853-0.53486-2.9932-1.8805m421 90c-0.30744-1.3457 0.53439-2.686 1.8806-2.9929 1.3457-0.30744 2.686 0.5344 2.9929 1.8801 0.30693 1.3462-0.5344 2.686-1.8806 2.9934-1.3457 0.30694-2.686-0.5349-2.9929-1.8806m-703 211c-0.30695-1.3457 0.53441-2.6859 1.8807-2.9928 1.3458-0.30793 2.686 0.53438 2.993 1.8801 0.30695 1.3462-0.53441 2.6859-1.8807 2.9933-1.3458 0.30693-2.686-0.53538-2.993-1.8806m126 203c-0.30794-1.3458 0.53389-2.6856 1.8806-2.9926 1.3457-0.30796 2.6855 0.53493 2.9924 1.8808 0.30794 1.3448-0.53389 2.6856-1.8806 2.9926-1.3457 0.30696-2.6855-0.53393-2.9924-1.8808m-83 130c-0.30692-1.3457 0.53486-2.6859 1.881-2.9928 1.3452-0.30743 2.6853 0.53438 2.9927 1.8801 0.30692 1.3462-0.53486 2.6859-1.881 2.9933-1.3452 0.30743-2.6853-0.53488-2.9927-1.8806m320-12c-0.30692-1.3457 0.53486-2.686 1.881-2.9929 1.3452-0.30744 2.6853 0.5344 2.9927 1.8801 0.30692 1.3462-0.53486 2.686-1.8805 2.9934-1.3456 0.30694-2.6858-0.5349-2.9932-1.8806m171-70c-0.30692-1.3457 0.53486-2.6854 1.881-2.9928 1.3452-0.30743 2.6853 0.53488 2.9927 1.8801 0.30692 1.3462-0.53486 2.6859-1.881 2.9933-1.3452 0.30743-2.6853-0.53488-2.9927-1.8806m141 169c-0.30695-1.3457 0.53441-2.6859 1.8807-2.9928 1.3458-0.30793 2.686 0.53438 2.993 1.8801s-0.53441 2.6854-1.8807 2.9933c-1.3458 0.30693-2.686-0.53538-2.993-1.8806m183-392c-0.30744-1.3456 0.53439-2.6857 1.8806-2.9931 1.3457-0.30741 2.6855 0.53485 2.9929 1.8805 0.30694 1.3456-0.53489 2.6852-1.8806 2.9931-1.3457 0.30691-2.686-0.53535-2.9929-1.8805m123-184c-0.30744-1.3451 0.53439-2.6852 1.8806-2.9926 1.3457-0.30741 2.686 0.53485 2.9929 1.8805 0.30694 1.3456-0.53489 2.6852-1.8806 2.9931-1.3457 0.30691-2.686-0.53535-2.9929-1.881m-489.06 512.44c0 1.381-1.119 2.5-2.5 2.5s-2.5-1.119-2.5-2.5 1.119-2.5 2.5-2.5 2.5 1.119 2.5 2.5m-74 133c0 1.381-1.119 2.5-2.5 2.5s-2.5-1.119-2.5-2.5 1.119-2.5 2.5-2.5 2.5 1.119 2.5 2.5m244-257c0 1.381-1.119 2.5-2.5 2.5s-2.5-1.119-2.5-2.5 1.119-2.5 2.5-2.5 2.5 1.119 2.5 2.5m-744 16c0 1.381-1.119 2.5-2.5 2.5s-2.5-1.119-2.5-2.5 1.119-2.5 2.5-2.5 2.5 1.119 2.5 2.5m972-304c0 1.381-1.119 2.5-2.5 2.5s-2.5-1.119-2.5-2.5 1.119-2.5 2.5-2.5 2.5 1.119 2.5 2.5m-708 484c0 1.3805-1.1195 2.5-2.5 2.5s-2.5-1.1195-2.5-2.5 1.1195-2.5 2.5-2.5 2.5 1.1195 2.5 2.5m-492-30c0 1.3805-1.1195 2.5-2.5 2.5s-2.5-1.1195-2.5-2.5 1.1195-2.5 2.5-2.5 2.5 1.1195 2.5 2.5m60-640c0 1.3805-1.1195 2.5-2.5 2.5s-2.5-1.1195-2.5-2.5 1.1195-2.5 2.5-2.5 2.5 1.1195 2.5 2.5m1118 617c0 1.3805-1.1195 2.5-2.5 2.5s-2.5-1.1195-2.5-2.5 1.1195-2.5 2.5-2.5 2.5 1.1195 2.5 2.5m-87-208c0 1.3805-1.1195 2.5-2.5 2.5s-2.5-1.1195-2.5-2.5 1.1195-2.5 2.5-2.5 2.5 1.1195 2.5 2.5m44-387c0 1.3805-1.1195 2.5-2.5 2.5s-2.5-1.1195-2.5-2.5 1.1195-2.5 2.5-2.5 2.5 1.1195 2.5 2.5m-522-142c0 1.3805-1.1195 2.5-2.5 2.5s-2.5-1.1195-2.5-2.5 1.1195-2.5 2.5-2.5 2.5 1.1195 2.5 2.5"/></g></svg>
